cloud-upload-outline.svg

<svg fill="currentColor" viewBox="0 0 24 24"><path d="M6.5 20q-2.28 0-3.89-1.57Q1 16.85 1 14.58q0-1.95 1.17-3.48 1.18-1.53 3.08-1.95.63-2.3 2.5-3.72Q9.63 4 12 4q2.93 0 4.96 2.04Q19 8.07 19 11q1.73.2 2.86 1.5 1.14 1.28 1.14 3 0 1.88-1.31 3.19T18.5 20H13q-.82 0-1.41-.59Q11 18.83 11 18v-5.15L9.4 14.4 8 13l4-4 4 4-1.4 1.4-1.6-1.55V18h5.5q1.05 0 1.77-.73.73-.72.73-1.77t-.73-1.77Q19.55 13 18.5 13H17v-2q0-2.07-1.46-3.54Q14.08 6 12 6 9.93 6 8.46 7.46 7 8.93 7 11h-.5q-1.45 0-2.47 1.03Q3 13.05 3 14.5T4.03 17q1.02 1 2.47 1H9v2m3-7"/></svg>

<svg  viewBox="0 0 24 24" fill="currentColor"><path  d="M6.5 20Q4.22 20 2.61 18.43 1 16.85 1 14.58 1 12.63 2.17 11.1 3.35 9.57 5.25 9.15 5.88 6.85 7.75 5.43 9.63 4 12 4 14.93 4 16.96 6.04 19 8.07 19 11 20.73 11.2 21.86 12.5 23 13.78 23 15.5 23 17.38 21.69 18.69 20.38 20 18.5 20H13Q12.18 20 11.59 19.41 11 18.83 11 18V12.85L9.4 14.4L8 13L12 9L16 13L14.6 14.4L13 12.85V18H18.5Q19.55 18 20.27 17.27 21 16.55 21 15.5 21 14.45 20.27 13.73 19.55 13 18.5 13H17V11Q17 8.93 15.54 7.46 14.08 6 12 6 9.93 6 8.46 7.46 7 8.93 7 11H6.5Q5.05 11 4.03 12.03 3 13.05 3 14.5 3 15.95 4.03 17 5.05 18 6.5 18H9V20M12 13Z"/></svg>
